X:1
T:James Gibb editions
T:Ancor che col partire - de Rore
T:#
%%score [ 1 2 3 4 ]
L:1/8
Q:1/4=108
M:4/4
K:C
V:1 treble nm="Soprano" snm="S"
V:2 treble nm="Alto" snm="A"
V:3 treble-8 nm="Tenor" snm="T"
V:4 bass nm="Bass" snm="B"
V:1
"^Cipriano de Rore\n(1515-65)""^Ancor che col partire" z2 A4 G2- | GE F2 G2 A2- | A2 G2 z4 | %3
w: An- cor|* che col par- ti\-|* re,|
 z4 G4 | E2 c4 A2 | c2 B4 A2 |[M:4/4] z2 G2 A3 G | ^F2 G2 E2 A2- | A2 G3 A F2 | E2 z2 c2 BG | %10
w: io|mi sen- to|mo- ri- re,|par- tir vor-|rei ogn´ hor, o\-|* gni mo- men-|to: tant´ il pia-|
 AB c2 B2 z2 | z2 c2 BGAB | c2 B2 z4 | z2 A2 D2 (A2- | AG/F/ G2) A2 c2 | B2 G4 A2 | %16
w: cer ch´io sen- to,|tant´ il pia- cer ch'ío|sen- to|de la vi\-|* * * * ta ch´a-|cqui- sto nel|
 A2 (G3 F/E/ FE) | G8 | z2 B2 c2 B2 | A>A GE FF E2 | C2 G>G FDCE | F2 E2 z2 c2 | B2 c2 A2 G2 | %23
w: ri- tor\- * * * *|no:|Et co- si|mill´ e mil- le volt´ il gior-|no, mill´ e mil- le volt´ il|gior- no, par-|tir da voi vor-|
 F4 E4- | E4 z4 | G2 ^FG E2 D2 | z2 G2 A2 (c2- | cB/A/ B2) E2 (A2- | A2 G2) A4 | z2 B2 c2 B2 | %30
w: re- i:||tan- to son dol- ci|gli ri- tor\-|* * * * ni mie\-|* * i:|et co- si|
 A>A GE FF E2 | C2 G>G FDCE | F2 E2 z2 c2 | B2 c2 A2 G2 | F4 E4- | E4 z4 | G2 ^FG E2 D2 | %37
w: mill´ e mil- le volt´ il gior-|no, mill´ e mil- le volt´ il|gior- no par-|tir da voi vor-|re- i:||tan- to son dol- ci|
 z2 G2 A2[Q:1/4=107] c2- |[Q:1/4=105] c2[Q:1/4=102] B3[Q:1/4=101] A[Q:1/4=99] (A2- | %39
w: gli ri- tor\-|* ni, ri- tor\-|
[Q:1/4=98] A[Q:1/4=97]^G)[Q:1/4=96] G2[Q:1/4=93] A4 |[Q:1/4=92] ^G8 |] %41
w: * * ni mie-|i.|
V:2
 A,4 C3 B, | C2 D2 E4 | E4 z4 | z2 E4 B,2 | G4 F2 E2 | E4 E4 |[M:4/4] z2 E2 F3 E | D2 D2 C2 E2 | %8
w: An- cor che|col par- ti-|re,|io mi|sen- to mo-|ri- re,|par- tir vor-|rei ogn´ hor, ogn´|
 D3 D EC D2 | B,2 C2 EFGE | F2 E2 z4 | F2 EC DE F2 | E2 z2 z4 | z2 F2 F2 E2- | E2 E2 F2 G2- | %15
w: hor, o- gni mo- men-|to: tant´ il pia- cer ch´io|sen- to,|tant´ il pia- cer ch'ío sen-|to|de la vi\-|* ta ch´a- cqui\-|
 G2 D2 (EDCB, | A,2) B,2 C4 | D4 z4 | E2 G2 F E2 E | CDEE D2 G,2 | z2 E2 F2 EC- | %21
w: * sto nel * * *|* ri- tor-|no:|Et co- si mill´ e|mil- le volt´ il gior- no,|Et co- si mill´|
 C/C/D B, C2 D E2 | D2 E2 F2 E2 | A,C (D3 C B,2) | A,2 C2 B,C A,2 | B,2 z2 z4 | D2 EC F2 E2 | %27
w: * e mil- le volt´ il gior-|no, par- tir da|voi vor- re\- * *|i: tan- to son dol-|ci|tan- to son dol- ci|
 z2 E3 C F2 | E2 E4 D2 | z E G2 F E2 E | CDEE D2 G,2 | z2 E2 F2 EC- | C/C/D B, C2 D E2 | %33
w: gli ri- tor-|ni mie- i:|et co- si mill´ e|mil- le volt´ il gior- no,|et co- si mill´|* e mil- le volt´ il gior-|
 D2 E2 F2 E2 | A,C (D3 C B,2) | A,2 C2 B,C A,2 | B,2 z2 z4 | D2 EG F2 E2 | A,2 B,2 C2 F2 | E8 | %40
w: no par- tir da|voi vor- re\- * *|i: tan- to son dol-|ci|tan- to son dol- ci|gli ri- tor- ni|mie-|
 E8 |] %41
w: i.|
V:3
 z8 | z4 c4 | B3 c A2 B2 | c4 B2 G2- | G2 E2 c4 | A2 B2 c4- |[M:4/4][K:treble-8] c2 B2 z4 | %7
w: |An-|cor che col par-|ti- re, io|* mi sen-|to mo- ri\-|* re,|
 z2 B2 c3 B | A2 B2 cAAA | G2 E2 z4 | d2 cA Bc d2 | c2 z2 z2 d2 | cABc d2 c2 | z2 A4 c2 | %14
w: par- tir vor-|rei ogn´ hor, o- gni mo-|men- to:|tant´ il pia- cer ch´io sen-|to, tant´|il pia- cer ch'ío sen- to|de la|
 B4 d2 e2 | d2 B2 c4 | d2 (e3 d c2- | c2) B2 z2 B2 | c2 B2 A>A GE | FF c2 A2 c>c | AABc AA A>A | %21
w: vi- ta ch´a-|cqui- sto nel|ri- tor\- * *|* no: Et|co- si mill´ e mil- le|volt´ il gior- no, mill´ e|mil- le volt´ il gior- no, mill´ e|
 FDEG A2 G2 | z G2 A2 B c2- | c A2 (B>A A2 ^G) | A4 z4 | e2 dB c2 B2 | z8 | E3 E c2 A2 | %28
w: mil- le volt´ il gior- no,|par- tir da voi|* vor- re\- * * *|i:|tan- to son dol- ci||gli ri- tor- ni|
 c2 B2 z2 A2 | c2 B2 A>A GE | FF c2 A2 c>c | AABc AA A>A | FDEG A2 G2 | z G2 A2 B c2- | %34
w: mie- i: et|co- si mill´ e mil- le|volt´ il gior- no, mill´ e|mil- le volt´ il gior- no mill´ e|mil- le volt´ il gior- no|par- tir da voi|
 c A2 (B>A A2 ^G) | A4 z4 | e2 dB c2 B2 | z BcB d2 c2 | e6 d2 | c2 B2 c4 | B8 |] %41
w: * vor- re\- * * *|i:|tan- to son dol- ci|tan- to son dol- ci|gli ri-|tor- ni mie-|i.|
V:4
 z8 | z4 z2 A,,2 | E,3 E, F,2 G,2 | A,4 E,4 | C,4 A,,2 A,2- | A,A, ^G,2 A,4 |[M:4/4] E,4 z4 | %7
w: |An-|cor che col par-|ti- re,|io mi sen\-|* to mo- ri-|re,|
 z2 G,2 A,3 G, | ^F,2 G,2 E,=F,D,D, | E,2 A,,2 z4 | z2 A,2 G,E,F,G, | A,4 G,2 z2 | %12
w: par- tir vor-|rei ogn´ hor, o- gni mo-|men- to:|tant´ il pia- cer ch´io|sen- to,|
 A,2 G,E, F,G, A,2 | D,2 D,4 A,,2 | E,4 D,2 C,2 | G,4 E,2 F,2- | F,2 E,2 A,4 | G,4 z2 E,2 | %18
w: tant´ il pia- cer ch'ío sen-|to de la|vi- ta ch´a-|cqui- sto nel|* ri- tor-|no: Et|
 A,2 E,2 z4 | z2 z A,, D,2 C,2 | F,>F, E,C, D,2 A,,2 | A,>A, G,E, F,F, C,2 | G,2 C,2 D,2 E,2 | %23
w: co- si|Et co- si|mill´ e mil- le vol- te,|mill´ e mil- le volt´ il gior-|no, par- tir da|
 F,2 D,2 E,4 | A,,2 A,2 G,E, F,2 | E,2 z2 z2 G,2 | ^F,G, E,2 D,2 A,2- | A,2 G,2 A,2 D,2 | %28
w: voi vor- re-|i: tan- to son dol-|ci tan-|to son dol- ci gli|* ri- tor- ni|
 (E,4 F,4) | E,4 z4 | z2 z A,, D,2 C,2 | F,>F, E,C, D,2 A,,2 | A,>A, G,E, F,F, C,2 | %33
w: mie\- *|i:|et co- si|mill´ e mil- le vol- te,|mill´ e mil- le volt´ il gior-|
 G,2 C,2 D,2 E,2 | F,2 D,2 E,4 | A,,2 A,2 G,E, F,2 | E,2 z2 z2 G,2 | ^F,G, E,2 D,2 A,2- | %38
w: no par- tir da|voi vor- re-|i: tan- to son dol-|ci tan-|to son dol- ci gli|
 A,2 G,2 A,2 D,2 | E,4 A,,4 | E,8 |] %41
w: * ri- tor- ni|mie- *|i.|

